icons/composerlock.svg

<svg width="16" height="16" viewBox="0 0 16 16" fill="none" xmlns="http://www.w3.org/2000/svg">
<path d="M6.86783 13.9741C6.39324 13.8631 5.91942 13.7512 5.44637 13.6384L3.18429 13.0969L3.20833 12.9703C3.24434 12.7952 3.26765 12.618 3.27812 12.4401V12.4296V12.4198C3.34388 12.0651 3.44777 11.717 3.58831 11.3804C3.59519 11.3644 3.59793 11.3472 3.59632 11.3301C3.5947 11.313 3.58878 11.2965 3.57901 11.2817C3.39444 10.9152 3.20135 10.5172 2.97568 10.0352L2.96327 10.0443C2.89739 10.1037 2.81029 10.1402 2.71744 10.1472C2.68191 10.1473 2.64674 10.1407 2.61431 10.1276C2.49721 10.0821 2.45921 9.97368 2.43284 9.88554C2.42497 9.8604 2.41565 9.83565 2.40492 9.81139L2.39097 9.78411V9.77992C2.39097 9.77432 2.38709 9.76872 2.38554 9.76313C2.37468 9.73934 2.35917 9.71136 2.34211 9.68268C2.27488 9.59069 2.24301 9.48133 2.25138 9.37141C2.27154 9.22451 2.42431 9.16645 2.53676 9.12378L2.59802 9.1V9.09161C2.53443 8.91673 2.47032 8.74232 2.4057 8.56838C2.23044 8.09552 2.04975 7.60657 1.88923 7.11412C1.67985 6.50556 1.47279 5.83893 1.25643 5.07788C1.13855 4.67576 1.05354 4.26639 1.00207 3.85305C0.993277 3.72593 1.01252 3.59849 1.05869 3.47812C1.07575 3.42286 1.09126 3.3711 1.10134 3.32143V3.31094V3.30115C1.11711 3.25732 1.14844 3.21939 1.19049 3.19322C1.23253 3.16706 1.28296 3.1541 1.33398 3.15635H1.35957C1.39379 3.15259 1.42824 3.15072 1.46271 3.15075C1.58456 3.15253 1.70423 3.18018 1.81202 3.23146C1.91981 3.28275 2.01268 3.35623 2.0831 3.44594C2.22883 3.6082 2.35857 3.78164 2.47084 3.96427C2.64377 4.24407 2.82369 4.52387 2.99739 4.79738C3.15249 5.0401 3.31147 5.28703 3.46734 5.53955C3.7279 5.20029 3.95822 4.85683 4.20094 4.49519L4.26919 4.39237C4.41834 4.18461 4.58015 3.98448 4.75386 3.79289C4.88104 3.6474 5.00202 3.5096 5.11214 3.3648C5.2525 3.18713 5.46498 3.13606 5.63481 3.09549H5.64257C5.6652 3.08934 5.68873 3.08628 5.71236 3.0864C5.76806 3.08787 5.82202 3.10418 5.86746 3.13327C5.91244 3.16194 5.95586 3.18713 6.00007 3.21231C6.13064 3.28049 6.24821 3.36716 6.34826 3.46903L6.38703 3.45923C7.87441 3.06541 8.96164 2.67859 9.91548 2.20223C10.0416 2.14175 10.171 2.08712 10.3032 2.03855C10.3693 2.01425 10.4397 2.0012 10.5111 2.00008C10.5675 1.99903 10.6236 2.00891 10.6755 2.02906C10.7274 2.04921 10.774 2.07916 10.8119 2.11689C10.8569 2.167 10.8895 2.22515 10.9077 2.2875C10.9259 2.34984 10.9292 2.41495 10.9174 2.47853C10.8891 2.7195 10.7652 2.9431 10.5684 3.10808L10.4219 3.23399C10.0341 3.56975 9.62778 3.91741 9.19506 4.22728C9.16016 4.25456 9.16171 4.25876 9.16947 4.27975C9.21367 4.40496 9.254 4.52877 9.29355 4.65258C9.37906 4.93247 9.48263 5.20761 9.60374 5.47659C9.60698 5.48408 9.61087 5.49133 9.61537 5.49828L9.63088 5.48988L11.2074 4.60361C12.5521 3.84676 13.948 3.06122 15.3276 2.29456C15.4307 2.23371 15.4943 2.19663 15.5788 2.19663C15.6952 2.19663 15.7611 2.26658 15.8526 2.36102L15.8727 2.382L15.8828 2.40788L15.896 2.41908C15.9292 2.4422 15.9559 2.47204 15.9739 2.50618C15.992 2.54033 16.0009 2.57782 15.9999 2.61564C15.992 2.6567 15.9733 2.69545 15.9453 2.72867C15.9174 2.76189 15.8811 2.78861 15.8394 2.8066L14.8406 3.38998L13.8069 3.99295C13.409 4.23218 12.9988 4.47071 12.6018 4.70085L12.3195 4.86803C12.4484 4.92046 12.5609 5.00098 12.6467 5.10236C12.7933 5.24226 12.9337 5.41434 12.9337 5.64447V5.65286C12.922 5.83124 12.8817 6.03269 12.6793 6.17609C12.3496 6.43768 12.0387 6.71806 11.7487 7.01549C11.6425 7.11972 11.5362 7.22534 11.4292 7.32607C11.3911 7.37004 11.3571 7.41684 11.3276 7.46597L11.2819 7.53592C10.8406 8.1165 10.487 8.75725 10.145 9.377C9.98993 9.6568 9.83483 9.9464 9.66578 10.2269C9.52718 10.4612 9.3177 10.6553 9.06168 10.7865C8.77246 10.9456 8.47456 11.0915 8.1691 11.2237H8.16134C8.11845 11.2318 8.08076 11.2547 8.05629 11.2875C8.03181 11.3203 8.02248 11.3604 8.03028 11.3993C8.05898 11.6721 7.8907 11.8378 7.72009 11.9631C7.69896 11.9852 7.68288 12.0109 7.67279 12.0386C7.56185 12.3052 7.47548 12.5797 7.41455 12.8591C7.37267 13.0277 7.32925 13.2019 7.27496 13.3705L7.32769 13.4208L7.27884 13.502C7.21094 13.6451 7.12948 13.7827 7.03534 13.9133L6.97485 14L6.86783 13.9741ZM4.04662 12.6038C4.12967 12.6155 4.21198 12.6312 4.29323 12.6507C5.0563 12.8353 5.77363 13.0004 6.49017 13.1508L6.51344 13.1564L6.53127 13.1655C6.60417 12.95 6.67706 12.7318 6.74996 12.5143C6.82751 12.2827 6.90506 12.0519 6.9826 11.8239L6.99036 11.7973C7.00767 11.71 7.05647 11.6303 7.12917 11.5706L7.13538 11.5657C7.21554 11.5124 7.28038 11.4425 7.3245 11.362C7.36861 11.2814 7.39071 11.1925 7.38896 11.1027C7.39127 11.0419 7.4001 10.9814 7.41532 10.9222C7.4223 10.8928 7.42851 10.8634 7.43316 10.8348C7.43254 10.7586 7.45745 10.684 7.50465 10.6209C7.55184 10.5577 7.6191 10.5089 7.6976 10.4808C8.21995 10.2666 8.68535 9.95389 9.06245 9.56377V9.55468C9.1466 9.47886 9.21652 9.39121 9.26951 9.29516C9.56652 8.6761 9.96744 8.11231 10.3156 7.61636C10.6638 7.12042 11.1555 6.49716 11.7991 5.95925C11.9103 5.86182 11.9854 5.73574 12.0139 5.5983C12.0235 5.56534 12.0218 5.53055 12.0091 5.49848C11.9963 5.46641 11.9732 5.43854 11.9426 5.41853C11.9075 5.39506 11.8659 5.38078 11.8224 5.37726C11.7912 5.37817 11.7613 5.3888 11.7379 5.40734C11.1803 5.78227 10.5452 6.03689 9.93022 6.28801L9.7379 6.36635L9.62235 6.41462C9.36722 6.52094 9.12682 6.62027 9.00894 6.84761L8.99731 6.87L8.97792 6.88748C8.95814 6.90434 8.93532 6.91806 8.91046 6.92805L8.89882 6.93505C8.6663 7.0652 8.40878 7.15488 8.13963 7.19946C8.10688 7.20474 8.07363 7.20708 8.04036 7.20645V7.06655V7.20645C8.01675 7.20393 7.99281 7.20657 7.97057 7.21415C6.55376 8.01578 5.10749 8.8195 3.71549 9.59805L3.70464 9.60364C3.76822 9.72395 3.83026 9.84357 3.8923 9.96318C4.07981 10.3439 4.28948 10.7154 4.52044 11.0761C4.5657 11.1316 4.5894 11.1991 4.58786 11.268C4.58631 11.3369 4.55962 11.4035 4.51191 11.4573C4.25213 11.7812 4.14899 12.1617 4.04662 12.5898V12.6038ZM1.83417 4.2C1.84813 4.27508 1.86131 4.34923 1.87372 4.42244C1.90191 4.60936 1.94126 4.79476 1.99159 4.97785C2.32195 6.09705 2.72597 7.20925 3.11759 8.28858L3.28355 8.74885L5.01288 7.87028C5.60302 7.57159 6.19394 7.27221 6.78098 6.97282C6.85232 6.93295 6.9291 6.89448 7.01362 6.85391H7.01983L6.91591 6.79375C6.61813 6.62027 6.31259 6.444 6.02256 6.23975C6.00705 6.2971 5.99231 6.35167 5.97758 6.40483C5.96912 6.45111 5.94446 6.49374 5.9072 6.52647C5.86994 6.55919 5.82204 6.5803 5.77052 6.5867H5.76277H5.75501C5.74443 6.58738 5.7338 6.58738 5.72322 6.5867C5.66818 6.58444 5.61449 6.57062 5.56642 6.54633C5.51835 6.52204 5.47725 6.48796 5.44637 6.4468C5.43584 6.43427 5.42444 6.42236 5.41225 6.41112C5.24785 6.26283 5.27344 6.13132 5.30368 6.07047C5.35681 5.96326 5.40189 5.85296 5.43862 5.7403C5.47041 5.65286 5.50221 5.56263 5.54176 5.47519V5.4654C5.59682 5.34159 5.64877 5.22407 5.79767 5.22407C5.88452 5.22407 5.95276 5.27094 6.05513 5.33529L6.06521 5.34159L6.11716 5.38915C6.51457 5.77119 6.98372 6.08686 7.50295 6.32159C7.5946 6.37118 7.69799 6.40043 7.80462 6.40693C7.89964 6.40382 7.99034 6.37035 8.06053 6.31249L8.07681 6.3006C8.07061 6.28661 8.06518 6.27332 8.06053 6.26003C8.04735 6.21142 8.02066 6.16665 7.98298 6.12992C7.72319 5.92007 7.45798 5.69623 7.14933 5.41783L7.00044 5.28423C6.66388 4.98414 6.31646 4.67426 6.05978 4.29234C5.99209 4.17506 5.90235 4.06926 5.79456 3.97966C5.77629 3.96124 5.75411 3.94631 5.72934 3.93574C5.70457 3.92517 5.6777 3.91917 5.65032 3.9181C5.61496 3.91915 5.58054 3.92864 5.55057 3.9456C5.5206 3.96255 5.49615 3.98638 5.47972 4.01464C5.36417 4.2035 5.22924 4.38397 5.09895 4.55745C4.96867 4.73092 4.84149 4.9009 4.7306 5.08137C4.61971 5.26184 4.50649 5.41853 4.39171 5.57942C4.22666 5.80249 4.07597 6.03394 3.94038 6.27262C3.9283 6.29028 3.92191 6.31063 3.92191 6.33138C3.92191 6.35213 3.9283 6.37248 3.94038 6.39014C3.9745 6.46778 4.01018 6.53983 4.04507 6.61188C4.13589 6.78339 4.20909 6.96204 4.26376 7.1456C4.33355 7.34356 4.20017 7.4254 4.11409 7.45128C4.08221 7.46356 4.04794 7.46998 4.01328 7.47017C3.96779 7.46832 3.92376 7.45511 3.88611 7.43201C3.84845 7.40892 3.81865 7.37684 3.80002 7.33936L3.79459 7.33167C3.72868 7.22814 3.66121 7.12881 3.59374 7.02948C3.49603 6.88538 3.39522 6.73639 3.30293 6.5818C3.14784 6.32369 2.99274 6.05578 2.84385 5.79696C2.53831 5.25835 2.22114 4.70294 1.83417 4.2ZM8.6941 5.98163L9.01282 5.80466C8.97017 5.69763 8.92984 5.58991 8.88874 5.48219C8.78638 5.21078 8.68014 4.93028 8.55373 4.66377C8.41185 4.73352 8.27917 4.81752 8.15824 4.91419C8.06284 4.98713 7.9629 5.05509 7.8589 5.11775L8.6941 5.98163ZM6.88489 4.01883L7.10125 4.27275C7.19121 4.37838 7.27884 4.4847 7.37112 4.58823C7.45953 4.54486 7.54948 4.50778 7.63634 4.47141C7.80023 4.41173 7.95502 4.33345 8.09697 4.23848C8.72667 3.7901 9.3075 3.34312 9.87438 2.87025C9.9434 2.81569 9.96279 2.78142 9.95891 2.76743V2.75274C9.95891 2.75274 9.95891 2.72406 9.95891 2.71776H9.95348C9.91432 2.7345 9.87649 2.75367 9.84026 2.77512L9.80149 2.79611C9.65957 2.86606 9.52464 2.93601 9.38893 3.00036C8.9587 3.22669 8.51293 3.42809 8.05432 3.60333L7.68985 3.73414C7.43394 3.82997 7.15864 3.9286 6.88489 4.01883Z" fill="#909090" fill-opacity="0.9"/>
</svg>

<svg xmlns="http://www.w3.org/2000/svg" width="16" height="16" fill="none" viewBox="0 0 16 16"><path fill="#909090" fill-opacity=".9" d="M6.868 13.974q-.713-.166-1.422-.336l-2.262-.541.024-.127q.054-.263.07-.53v-.02q.1-.533.31-1.04a.1.1 0 0 0-.009-.098 48 48 0 0 1-.603-1.247l-.013.01a.4.4 0 0 1-.246.102.3.3 0 0 1-.103-.02c-.117-.045-.155-.153-.181-.241l-.028-.075-.014-.027V9.78l-.005-.017a1 1 0 0 0-.044-.08.47.47 0 0 1-.09-.312c.02-.146.172-.205.285-.247l.061-.024v-.008l-.192-.524a39 39 0 0 1-.517-1.454 39 39 0 0 1-.633-2.036 8 8 0 0 1-.254-1.225.9.9 0 0 1 .057-.375q.026-.082.042-.157v-.02a.2.2 0 0 1 .09-.108.25.25 0 0 1 .143-.037h.026a.84.84 0 0 1 .452.075q.163.079.271.215.22.244.388.518c.173.28.353.56.526.833q.234.364.47.743c.26-.34.491-.683.734-1.045l.068-.103q.225-.311.485-.6c.127-.145.248-.282.358-.427.14-.178.353-.229.523-.27h.008a.3.3 0 0 1 .07-.009.3.3 0 0 1 .154.047q.067.042.133.08.197.102.348.256l.039-.01c1.487-.394 2.575-.78 3.528-1.257a4 4 0 0 1 .388-.163.6.6 0 0 1 .208-.039.4.4 0 0 1 .165.03q.078.03.136.087a.44.44 0 0 1 .096.17.4.4 0 0 1 .01.192.97.97 0 0 1-.35.63l-.146.125c-.388.336-.794.683-1.227.993-.035.028-.033.032-.026.053q.066.187.125.373a7 7 0 0 0 .321.845l.016-.008 1.576-.886c1.345-.757 2.741-1.543 4.12-2.31.104-.06.167-.097.252-.097.116 0 .182.07.274.164l.02.021.01.026.013.011q.05.035.078.087a.2.2 0 0 1 .026.11.25.25 0 0 1-.055.113.3.3 0 0 1-.106.078l-.998.583-1.034.603c-.398.24-.808.478-1.205.708l-.283.167a.84.84 0 0 1 .328.234c.146.14.287.312.287.542v.009c-.012.178-.052.38-.255.523a10 10 0 0 0-.93.84q-.16.158-.32.31a1 1 0 0 0-.101.14l-.046.07c-.441.58-.795 1.221-1.137 1.841-.155.28-.31.57-.48.85a1.5 1.5 0 0 1-.603.56q-.434.238-.893.437h-.008a.17.17 0 0 0-.105.063.14.14 0 0 0-.026.112c.029.273-.14.439-.31.564a.2.2 0 0 0-.047.076q-.167.4-.258.82a8 8 0 0 1-.14.511l.053.05-.05.082q-.101.214-.243.411l-.06.087zm-2.821-1.37q.125.017.246.047c.763.184 1.48.35 2.197.5l.023.005.018.01.219-.652.233-.69.007-.027a.4.4 0 0 1 .14-.226l.005-.005a.6.6 0 0 0 .19-.204.5.5 0 0 0 .064-.26 1 1 0 0 1 .026-.18l.018-.087c0-.076.024-.151.072-.214a.4.4 0 0 1 .193-.14 4 4 0 0 0 1.364-.917v-.01a1 1 0 0 0 .208-.259c.297-.619.697-1.183 1.046-1.679.348-.496.84-1.119 1.483-1.657a.66.66 0 0 0 .215-.36.15.15 0 0 0-.005-.1.17.17 0 0 0-.066-.08.25.25 0 0 0-.12-.042.14.14 0 0 0-.085.03c-.558.375-1.193.63-1.808.881l-.192.078-.116.049c-.255.106-.495.205-.613.433l-.012.022-.02.017a.2.2 0 0 1-.067.041l-.011.007c-.233.13-.49.22-.76.264a1 1 0 0 1-.099.007v-.14.14a.2.2 0 0 0-.07.008c-1.416.802-2.863 1.605-4.255 2.384l-.01.006.187.36q.282.57.628 1.112a.3.3 0 0 1 .068.192.3.3 0 0 1-.076.19c-.26.323-.363.704-.465 1.132zM1.834 4.2l.04.222q.042.281.118.556c.33 1.12.734 2.231 1.126 3.31l.166.46 1.729-.878 2-1.016h.007l-.104-.06c-.298-.174-.603-.35-.893-.554l-.045.165a.2.2 0 0 1-.07.121.26.26 0 0 1-.137.06h-.048a.4.4 0 0 1-.157-.04.34.34 0 0 1-.12-.1l-.034-.035c-.164-.148-.139-.28-.108-.34q.08-.162.135-.33.045-.133.103-.266v-.01c.055-.123.107-.24.256-.24.087 0 .155.046.257.11l.01.007.052.047c.398.382.867.698 1.386.933q.14.075.302.085a.43.43 0 0 0 .256-.095l.016-.011-.016-.041a.3.3 0 0 0-.078-.13c-.26-.21-.525-.434-.834-.712L7 5.284c-.336-.3-.684-.61-.94-.992a1.2 1.2 0 0 0-.265-.312.2.2 0 0 0-.066-.044.2.2 0 0 0-.079-.018.2.2 0 0 0-.1.028.2.2 0 0 0-.07.069c-.116.189-.25.369-.381.542-.13.174-.258.344-.368.524-.111.18-.225.338-.34.498a7 7 0 0 0-.45.694.1.1 0 0 0 0 .117q.052.116.104.222.136.257.219.534c.07.198-.064.28-.15.305a.3.3 0 0 1-.1.02.26.26 0 0 1-.128-.039.23.23 0 0 1-.086-.093l-.005-.007a12 12 0 0 0-.201-.303 9 9 0 0 1-.291-.447c-.155-.258-.31-.526-.46-.785-.305-.539-.622-1.094-1.009-1.597m6.86 1.782.319-.177q-.063-.16-.124-.323a11 11 0 0 0-.335-.818q-.214.106-.396.25-.143.11-.3.204zm-1.81-1.963.217.254q.133.159.27.315.134-.063.265-.117.247-.09.461-.233A29 29 0 0 0 9.874 2.87c.07-.054.089-.089.085-.103v-.049h-.006a1 1 0 0 0-.113.057l-.039.021q-.21.107-.412.204-.646.34-1.335.603l-.364.131a21 21 0 0 1-.805.285"/></svg>
